assets/wave.svg

<svg fill="none" preserveAspectRatio="none" viewBox="0 0 100 100" xmlns="http://www.w3.org/2000/svg"><path clip-rule="evenodd" d="m0 0 2.36111 16.7095c2.43056 16.7095 7.15278 49.8715 11.94449 62.982 4.7222 12.8535 9.5138 5.3985 14.2361-9.2545 4.7916-14.91 9.5833-37.018 14.3055-50.1285 4.7917-12.85349 9.5139-16.45246 14.3056-9.2545 4.7222 7.455 9.5139 25.964 14.3055 40.874 4.7223 14.653 9.5139 25.964 14.2361 16.7095 4.7917-9.2545 9.5139-39.0745 11.9445-53.7275l2.3611-14.91v100h-2.3611c-2.4306 0-7.1528 0-11.9445 0-4.7222 0-9.5138 0-14.2361 0-4.7916 0-9.5833 0-14.3055 0-4.7917 0-9.5139 0-14.3056 0-4.7222 0-9.5139 0-14.3055 0-4.7223 0-9.5139 0-14.2361 0-4.79171 0-9.51393 0-11.94449 0h-2.36111z" fill="#fff" fill-rule="evenodd"/></svg>

<svg width="100%" height="100%" viewBox="0 0 100 100" fill="none" xmlns="http://www.w3.org/2000/svg" preserveAspectRatio="none">
<path fill-rule="evenodd" clip-rule="evenodd" d="M0 0L2.36111 16.7095C4.79167 33.419 9.51389 66.581 14.3056 79.6915C19.0278 92.545 23.8194 85.09 28.5417 70.437C33.3333 55.527 38.125 33.419 42.8472 20.3085C47.6389 7.45501 52.3611 3.85604 57.1528 11.054C61.875 18.509 66.6667 37.018 71.4583 51.928C76.1806 66.581 80.9722 77.892 85.6944 68.6375C90.4861 59.383 95.2083 29.563 97.6389 14.91L100 0V100H97.6389C95.2083 100 90.4861 100 85.6944 100C80.9722 100 76.1806 100 71.4583 100C66.6667 100 61.875 100 57.1528 100C52.3611 100 47.6389 100 42.8472 100C38.125 100 33.3333 100 28.5417 100C23.8194 100 19.0278 100 14.3056 100C9.51389 100 4.79167 100 2.36111 100H0V0Z" fill="#fff"/>
</svg>
